logo/cypress-icon.svg

<?xml version="1.0" encoding="UTF-8"?>
<svg width="256px" height="256px" viewBox="0 0 256 256" version="1.1" xmlns="http://www.w3.org/2000/svg" preserveAspectRatio="xMidYMid">
    <title>Cypress</title>
    <defs>
        <linearGradient x1="6.31990833%" y1="44.0284953%" x2="87.5200593%" y2="58.4063838%" id="cypressGradient-1">
            <stop stop-color="#315C55" offset="0%"></stop>
            <stop stop-color="#09293F" offset="100%"></stop>
        </linearGradient>
        <linearGradient x1="54.2975471%" y1="27.2620916%" x2="50%" y2="100%" id="cypressGradient-2">
            <stop stop-color="#4FB38D" offset="0%"></stop>
            <stop stop-color="#315C55" offset="100%"></stop>
        </linearGradient>
        <linearGradient x1="13.9089831%" y1="50%" x2="70.8193808%" y2="54.9595072%" id="cypressGradient-3">
            <stop stop-color="#4FB38D" offset="0%"></stop>
            <stop stop-color="#97DEC0" offset="100%"></stop>
        </linearGradient>
        <linearGradient x1="53.8595989%" y1="30.892265%" x2="38.3884555%" y2="95.7936297%" id="cypressGradient-4">
            <stop stop-color="#97DEC0" offset="0%"></stop>
            <stop stop-color="#FFFFF0" stop-opacity="0" offset="100%"></stop>
            <stop stop-color="#FFFFF0" stop-opacity="0" offset="100%"></stop>
        </linearGradient>
    </defs>
    <g>
        <path d="M141.651196,223.943467 L137.316065,234.469333 C136.45478,236.552533 134.485522,237.963733 132.269576,238.059733 C130.806455,238.114667 129.329512,238.155733 127.838746,238.155733 C76.8145529,238.128533 31.6703279,202.042667 20.4835188,152.32 L3.11509558,156.253333 C9.39230154,184.143467 25.1469488,209.457067 47.4796295,227.548267 C70.0720779,245.844267 98.5316811,255.945067 127.647349,256 C127.688287,256 127.907329,256 127.907329,256 C129.616607,256 131.312593,255.958933 133.008047,255.890667 C142.143511,255.506667 150.308169,249.764267 153.795839,241.253333 L159.457455,227.493333 L141.651196,223.943467 Z" fill="url(#cypressGradient-1)"></path>
        <path d="M4.54047351,161.9136 C1.53178891,150.922133 0,139.5056 0,128.006933 C0,75.5157333 32.8631006,27.52 81.781825,8.59312 L88.1957359,25.24496 C46.0875918,41.54048 17.8059874,82.8341333 17.8059874,128.006933 C17.8059874,137.915733 19.1188082,147.728533 21.7035654,157.185067 L4.54047351,161.9136 Z" fill="url(#cypressGradient-2)"></path>
        <path d="M225.692888,77.2976 C206.655844,40.636 169.184121,17.85792 127.924342,17.85792 C113.304836,17.85792 99.0957692,20.6811733 85.7203406,26.2317867 L78.896522,9.74437333 C94.4458965,3.28923733 110.938962,4.40388241e-15 127.924342,4.40388241e-15 C175.858013,4.40388241e-15 219.374676,26.4510933 241.48842,69.0469333 L225.692888,77.2976 Z" fill="url(#cypressGradient-3)"></path>
        <path d="M89.7274399,101.5968 C100.052752,101.5968 108.463567,107.12 112.784876,116.754667 L113.126731,117.5088 L130.46779,111.6016 L130.098288,110.710933 C123.383459,94.3056 107.916492,84.1088 89.7274399,84.1088 C76.9405556,84.1088 66.5466598,88.2208 57.9582715,96.6629333 C49.4246969,105.050667 45.1032819,115.603733 45.1032819,128.034133 C45.1032819,140.3552 49.4246969,150.853333 57.9582715,159.241067 C66.5466598,167.683733 76.9405556,171.7952 89.7274399,171.7952 C107.916492,171.7952 123.383459,161.5984 130.098288,145.206933 L130.46779,144.316267 L113.099617,138.3952 L112.771053,139.176533 C108.901121,148.646933 100.285086,154.3072 89.7274399,154.3072 C82.5341197,154.3072 76.4620643,151.7856 71.6479095,146.824 C66.7795256,141.794133 64.3179534,135.476267 64.3179534,128.048 C64.3179534,120.5648 66.724765,114.370133 71.6479095,109.1072 C76.4482412,104.118933 82.5341197,101.5968 89.7274399,101.5968 Z" fill="#09293F"></path>
        <polygon fill="#09293F" points="198.340727 85.7264 173.628774 148.454933 148.752008 85.7264 128.402302 85.7264 163.289639 171.342933 138.467634 231.728 156.26007 235.277867 217.569168 85.7264"></polygon>
        <path d="M241.48842,69.0469333 C250.491426,86.585413 256,107.185152 256,128.270804 C256,177.470749 228.328804,220.187364 187.746749,241.613772 L178.978892,226.065967 C214.169866,207.714 238.206111,170.808235 238.206111,128.270804 C238.206111,109.811937 233.692686,92.5795665 225.692888,77.2976 C225.692888,77.2976 241.48842,69.0469333 241.48842,69.0469333 Z" fill="url(#cypressGradient-4)"></path>
    </g>
</svg>

<svg viewBox="0 0 256 256" xmlns="http://www.w3.org/2000/svg"><defs><linearGradient id="a" x1="6.319%" x2="87.52%" y1="44.028%" y2="58.406%"><stop offset="0%" stop-color="#315C55"/><stop offset="100%" stop-color="#09293F"/></linearGradient><linearGradient id="b" x1="54.297%" x2="50%" y1="27.262%" y2="100%"><stop offset="0%" stop-color="#4FB38D"/><stop offset="100%" stop-color="#315C55"/></linearGradient><linearGradient id="c" x1="13.908%" x2="70.819%" y1="50%" y2="54.959%"><stop offset="0%" stop-color="#4FB38D"/><stop offset="100%" stop-color="#97DEC0"/></linearGradient><linearGradient id="d" x1="53.859%" x2="38.388%" y1="30.892%" y2="95.793%"><stop offset="0%" stop-color="#97DEC0"/><stop offset="100%" stop-color="#FFFFF0" stop-opacity="0"/><stop offset="100%" stop-color="#FFFFF0" stop-opacity="0"/></linearGradient></defs><path fill="url(#a)" d="M141.65 223.94l-4.34 10.52c-.87 2.08-2.84 3.49-5.05 3.59 -1.47.05-2.95.09-4.44.09 -51.03-.03-96.17-36.12-107.36-85.84l-17.37 3.93c6.27 27.89 22.03 53.2 44.36 71.29 22.59 18.29 51.05 28.39 80.16 28.45 .04 0 .25 0 .25 0 1.7 0 3.4-.05 5.1-.11 9.13-.39 17.3-6.13 20.78-14.64l5.66-13.76 -17.81-3.55Z"/><path fill="url(#b)" d="M4.54 161.91C1.53 150.91-.01 139.5-.01 128c0-52.5 32.86-100.49 81.78-119.42l6.41 16.65C46.07 41.52 17.79 82.81 17.79 127.99c-.001 9.9 1.31 19.72 3.89 29.17l-17.17 4.72Z"/><path fill="url(#c)" d="M225.69 77.29c-19.04-36.67-56.51-59.44-97.77-59.44 -14.62 0-28.83 2.82-42.21 8.37L78.88 9.73C94.42 3.27 110.92-.02 127.9-.02c47.93 0 91.45 26.45 113.56 69.04l-15.8 8.25Z"/><g fill="#09293F"><path d="M89.72 101.59c10.32 0 18.73 5.52 23.05 15.15l.34.75 17.34-5.91 -.37-.9c-6.72-16.41-22.19-26.61-40.38-26.61 -12.79 0-23.19 4.11-31.77 12.55 -8.54 8.38-12.86 18.94-12.86 31.37 0 12.32 4.32 22.81 12.85 31.2 8.58 8.44 18.98 12.55 31.76 12.55 18.18 0 33.65-10.2 40.37-26.59l.36-.9 -17.37-5.93 -.33.78c-3.87 9.47-12.49 15.13-23.05 15.13 -7.2 0-13.27-2.53-18.08-7.49 -4.87-5.03-7.33-11.35-7.33-18.78 0-7.49 2.4-13.68 7.32-18.95 4.8-4.99 10.88-7.52 18.07-7.52Z"/><path d="M198.34 85.72l-24.72 62.72 -24.88-62.73 -20.35 0 34.88 85.61 -24.83 60.38 17.79 3.54 61.3-149.56Z"/></g><path fill="url(#d)" d="M241.48 69.04c9 17.53 14.51 38.13 14.51 59.22 0 49.19-27.68 91.91-68.26 113.34l-8.77-15.55c35.19-18.36 59.22-55.26 59.22-97.8 0-18.46-4.52-35.7-12.52-50.98 0 0 15.79-8.26 15.79-8.26Z"/></svg>
